icons/fill-new-office-tool-collection-tag-plus-add.svg

<svg xmlns="http://www.w3.org/2000/svg" width="32px" height="32px" viewBox="0 0 32 32" version="1.1">
    <title>fill-new-office-tool-collection-tag-plus-add</title>
    <g id="fill-new-office-tool-collection-tag-plus-add" stroke-width="1" fill-rule="evenodd">
        <path d="M25,3 C25.5522847,3 26,3.44771525 26,4 L26,28.9193752 C26,29.4716599 25.5522847,29.919412 25,29.919412 C24.7729285,29.919412 24.552618,29.8420944 24.375305,29.700244 L16.624695,23.499756 C16.2594764,23.2075811 15.7405236,23.2075811 15.375305,23.499756 L7.62469505,29.700244 C7.19343311,30.0452535 6.56414074,29.9753321 6.21913119,29.5440702 C6.07728075,29.3667572 6,29.1464466 6,28.9193752 L6,4 C6,3.44771525 6.44771525,3 7,3 L25,3 Z M16,9 C15.4477153,9 15,9.44771525 15,10 L15,12 L13,12 C12.4871642,12 12.0644928,12.3860402 12.0067277,12.8833789 L12,13 C12,13.5522847 12.4477153,14 13,14 L15,14 L15,16 C15,16.5128358 15.3860402,16.9355072 15.8833789,16.9932723 L16,17 C16.5522847,17 17,16.5522847 17,16 L17,14 L19,14 C19.5128358,14 19.9355072,13.6139598 19.9932723,13.1166211 L20,13 C20,12.4477153 19.5522847,12 19,12 L17,12 L17,10 C17,9.48716416 16.6139598,9.06449284 16.1166211,9.00672773 L16,9 Z" id="&#24418;&#29366;" />
    </g>
</svg>

<svg xmlns="http://www.w3.org/2000/svg" viewBox="0 0 32 32"><path fill="currentColor" d="M25 3a1 1 0 0 1 1 1v24.92a1 1 0 0 1-1.625.78l-7.75-6.2a1 1 0 0 0-1.25 0l-7.75 6.2A1 1 0 0 1 6 28.92V4a1 1 0 0 1 1-1zm-9 6a1 1 0 0 0-1 1v2h-2a1 1 0 0 0-.993.883L12 13a1 1 0 0 0 1 1h2v2a1 1 0 0 0 .883.993L16 17a1 1 0 0 0 1-1v-2h2a1 1 0 0 0 .993-.883L20 13a1 1 0 0 0-1-1h-2v-2a1 1 0 0 0-.883-.993z"/></svg>
